svg/u264f.svg

<svg viewBox="0 0 128 128" xmlns="http://www.w3.org/2000/svg">
  <circle cx="64" cy="64" r="60" fill="#26A69A"/>
  <circle cx="64" cy="64" r="60" fill="#00796B"/>
  <circle cx="60.1" cy="63.1" r="56.1" fill="#26A69A"/>
  <path d="M24,29.7c4.5-7.1,14.1-13,24.1-14.8c2.5-0.4,5-0.6,7.1,0.2 c1.6,0.6,2.9,2.1,2,3.8c-0.7,1.4-2.6,2-4.1,2.5c-9.3,3-17.9,6.4-23.1,14.3c-2,3-4.9,14.4-8.6,12.3C17.5,45.7,18.3,38.5,24,29.7z" opacity="0.3" fill="#FFFFFF" enable-background="new "/>
  <path d="M109.6,76.4l-6-8c-0.7-1.5-2.8-1.5-3.6,0l-6,8c-0.7,1.3,0.3,2.9,1.8,2.9h2c0,0,0,0,0,0.1 c0,3.4-1.2,6.2-3.5,7.4c-1.7,0.9-10.9,1.8-10.2-19.7V45.3c0-8.7-6.8-16.1-15.5-16.4c-4.6-0.1-8.7,1.6-11.7,4.6 c-0.4,0.4-1.1,0.4-1.6,0c-3-3-7.2-4.8-11.7-4.6c-8.7,0.3-15.5,7.7-15.5,16.4v43.4c0,2.1,1.5,3.9,3.6,4.2c2.4,0.2,4.4-1.6,4.4-4V45.1 c0-4.3,3.2-8,7.5-8.3c4.7-0.3,8.5,3.4,8.5,8v43.8c0,2.1,1.5,3.9,3.6,4.2c2.4,0.2,4.4-1.6,4.4-4V45.1c0-4.3,3.2-8,7.4-8.3 c4.7-0.3,8.6,3.4,8.6,8c0,0-0.1,19.2-0.1,20.6c0,8.8-0.9,23.5,9.7,28.6c5.3,2.5,11.1,0.4,13.1-0.9c4.2-2.8,6.8-8.6,6.9-13.8h2 C109.3,79.3,110.3,77.7,109.6,76.4z" fill="#FAFAFA"/>
</svg>

<svg viewBox="0 0 128 128" xmlns="http://www.w3.org/2000/svg">
  <defs/>
  <path d="M124,64 A60 60 0 1 1 4,64 A60 60 0 1 1 124,64 Z" fill="#26A69A"/>
  <path d="M124,64 A60 60 0 1 1 4,64 A60 60 0 1 1 124,64 Z" fill="#00796B"/>
  <path d="M116.2,63.1 A56.1 56.1 0 1 1 4,63.1 A56.1 56.1 0 1 1 116.2,63.1 Z" fill="#26A69A"/>
  <path d="M24,29.7 C28.5,22.6 38.1,16.7 48.1,14.9 C50.6,14.5 53.1,14.3 55.2,15.1 C56.8,15.7 58.1,17.2 57.2,18.9 C56.5,20.3 54.6,20.9 53.1,21.4 C43.8,24.4 35.2,27.8 30,35.7 C28,38.7 25.1,50.1 21.4,48 C17.5,45.7 18.3,38.5 24,29.7 Z" fill="#FFFFFF" opacity="0.3"/>
  <path d="M109.6,76.4 L103.6,68.4 C102.9,66.9 100.8,66.9 100,68.4 L94,76.4 C93.3,77.7 94.3,79.3 95.8,79.3 L97.8,79.3 C97.8,79.3 97.8,79.3 97.8,79.4 C97.8,82.8 96.6,85.6 94.3,86.8 C92.6,87.7 83.4,88.6 84.1,67.1 L84.1,45.3 C84.1,36.6 77.3,29.2 68.6,28.9 C64,28.8 59.9,30.5 56.9,33.5 C56.5,33.9 55.8,33.9 55.3,33.5 C52.3,30.5 48.1,28.7 43.6,28.9 C34.9,29.2 28.1,36.6 28.1,45.3 L28.1,88.7 C28.1,90.8 29.6,92.6 31.7,92.9 C34.1,93.1 36.1,91.3 36.1,88.9 L36.1,45.1 C36.1,40.8 39.3,37.1 43.6,36.8 C48.3,36.5 52.1,40.2 52.1,44.8 L52.1,88.6 C52.1,90.7 53.6,92.5 55.7,92.8 C58.1,93 60.1,91.2 60.1,88.8 L60.1,45.1 C60.1,40.8 63.3,37.1 67.5,36.8 C72.2,36.5 76.1,40.2 76.1,44.8 C76.1,44.8 76,64 76,65.4 C76,74.2 75.1,88.9 85.7,94 C91,96.5 96.8,94.4 98.8,93.1 C103,90.3 105.6,84.5 105.7,79.3 L107.7,79.3 C109.3,79.3 110.3,77.7 109.6,76.4 Z" fill="#FAFAFA"/>
</svg>
